X:161
T:Miss Betty McDonald's Reel. Ru2.161
%%VWML:RutherfordVol2-2249-p81-0
F:http://www.vwml.org/record/RutherfordVol2/2249/p81
Z:vmp.Ruairidh Greig 2015 www.village-music-project.org.uk
M:C|
L:1/8
R:Reel
Q:1/4=120
K:G
G2DE/F/ GDB,G,|GABG A/A/AA2|G2"tr"F>E/F// GG,G,c|BdAB G/G/GG2:|
|:BcdB ecdB|cBAG =F/F/FA2|Bddg ecdB|cAdB G/G/GG2:||
W:The first 2d & 3d Cus. foot it & change sides .|
W:Foot it & Change sides back again :| First Cu.
W:Cross over one Cu. & turn .|. Hands round all
W:Six :|
T:Miss Polly Skinners Reel. Ru2.162
B:RUTHERFORD Complete Collection of 200 Country Dances Vol.2; 1759.
Z:vmp.Ruairidh Greig 2015 www.village-music-project.org.uk
M:C
L:1/8
R:Reel
Q:1/4=120
K:D
F|DdFd E/E/E EF|DdFd DdFd|(e/d/c/B/) dF E/E/E EF|DdFA D/D/D D:|
|:f|(d/e/f/g/ a)""f geef|d/e/f/g/ af bgaf|gefd geef|(d/c/B/A/ d)""F D/D/D D:|
W:The first Cu. cast off one Cu. right Hands across
W:with the 3d. Cu. .| The 2d. Cu. cast off & right
W:Hands across with the 3d. Cu. :| The first Cu.
W:Gallop down two Cu. & cast up into the 2d. Cus.
W:Place .|. Lead up to the Top cast off & turn your
W:Partner :|
